wp-carousel-free/admin/img/pagination/custom-numbers.svg

<svg width="80" height="32" viewBox="0 0 80 32" fill="none" xmlns="http://www.w3.org/2000/svg">
<g clip-path="url(#clip0_1993_21074)">
<path d="M13 21C15.7614 21 18 18.7614 18 16C18 13.2386 15.7614 11 13 11C10.2386 11 8 13.2386 8 16C8 18.7614 10.2386 21 13 21Z" fill="#58707F"/>
<path d="M14.168 13.313V19H12.852V14.797L11.555 15.176V14.176L14.047 13.313H14.168Z" fill="white"/>
<path d="M27 21C29.7614 21 32 18.7614 32 16C32 13.2386 29.7614 11 27 11C24.2386 11 22 13.2386 22 16C22 18.7614 24.2386 21 27 21Z" fill="#58707F"/>
<path d="M29.222 17.984V19H25.253V18.141L27.081 16.219L27.472 15.723C27.5588 15.5977 27.631 15.4628 27.687 15.321C27.7302 15.2183 27.7539 15.1084 27.757 14.997C27.757 14.833 27.732 14.696 27.683 14.587C27.634 14.478 27.566 14.39 27.472 14.333C27.378 14.276 27.268 14.247 27.132 14.247C26.996 14.247 26.878 14.286 26.777 14.364C26.676 14.442 26.596 14.549 26.539 14.684C26.4824 14.8296 26.4546 14.9848 26.457 15.141H25.137C25.1336 14.8049 25.2214 14.4742 25.391 14.184C25.5638 13.8943 25.8105 13.6558 26.106 13.493C26.4296 13.3135 26.795 13.2231 27.165 13.231C27.584 13.231 27.936 13.296 28.22 13.426C28.4882 13.5421 28.7126 13.7402 28.861 13.992C29.007 14.237 29.08 14.532 29.08 14.879C29.0808 15.0729 29.0491 15.2656 28.986 15.449C28.9191 15.6404 28.8288 15.8228 28.717 15.992C28.6 16.169 28.457 16.351 28.287 16.539L27.717 17.137L26.983 17.985H29.225L29.222 17.984Z" fill="white"/>
<path d="M41 21C43.7614 21 46 18.7614 46 16C46 13.2386 43.7614 11 41 11C38.2386 11 36 13.2386 36 16C36 18.7614 38.2386 21 41 21Z" fill="#58707F"/>
<path d="M40.453 15.606H41.094C41.2331 15.6115 41.3713 15.5819 41.496 15.52C41.603 15.46 41.682 15.377 41.734 15.27C41.7886 15.1485 41.8153 15.0162 41.812 14.883C41.8132 14.7732 41.7878 14.6648 41.738 14.567C41.6902 14.4697 41.6138 14.3895 41.519 14.337C41.42 14.277 41.294 14.247 41.14 14.247C41.0348 14.2471 40.9308 14.2696 40.835 14.313C40.736 14.355 40.654 14.415 40.589 14.493C40.524 14.571 40.495 14.666 40.495 14.778H39.175C39.175 14.455 39.264 14.179 39.441 13.95C39.618 13.721 39.856 13.541 40.148 13.419C40.44 13.297 40.759 13.232 41.097 13.232C41.501 13.232 41.855 13.295 42.16 13.42C42.465 13.545 42.702 13.725 42.871 13.967C43.04 14.209 43.129 14.504 43.129 14.858C43.1297 15.0502 43.0826 15.2395 42.992 15.409C42.901 15.581 42.773 15.732 42.609 15.862C42.445 15.992 42.252 16.095 42.031 16.171C41.7988 16.2459 41.556 16.2827 41.312 16.28H40.453V15.608V15.606ZM40.453 16.586V15.93H41.312C41.5742 15.9274 41.8356 15.9603 42.089 16.028C42.3066 16.0827 42.5118 16.178 42.694 16.309C42.86 16.4301 42.9942 16.5896 43.085 16.774C43.1793 16.9701 43.2262 17.1855 43.222 17.403C43.222 17.669 43.169 17.906 43.062 18.114C42.955 18.322 42.805 18.498 42.613 18.641C42.409 18.7897 42.1801 18.9008 41.937 18.969C41.679 19.042 41.399 19.078 41.097 19.078C40.86 19.078 40.623 19.047 40.386 18.984C40.149 18.921 39.933 18.82 39.738 18.687C39.543 18.554 39.385 18.38 39.265 18.171C39.145 17.962 39.089 17.709 39.089 17.417H40.409C40.409 17.537 40.442 17.646 40.507 17.745C40.5766 17.8431 40.6694 17.9224 40.777 17.976C40.889 18.033 41.01 18.062 41.14 18.062C41.282 18.0663 41.4229 18.0354 41.55 17.972C41.665 17.91 41.752 17.826 41.812 17.722C41.872 17.618 41.902 17.502 41.902 17.374C41.902 17.181 41.87 17.028 41.804 16.913C41.738 16.798 41.649 16.715 41.527 16.663C41.405 16.611 41.263 16.585 41.093 16.585H40.452L40.453 16.586Z" fill="white"/>
<path d="M55 21C57.7614 21 60 18.7614 60 16C60 13.2386 57.7614 11 55 11C52.2386 11 50 13.2386 50 16C50 18.7614 52.2386 21 55 21Z" fill="#58707F"/>
<path d="M57.304 16.777V17.793H53.21L53.132 16.988L55.417 13.312H56.456L55.327 15.16L54.39 16.777H57.304ZM56.73 13.312V19H55.414V13.313L56.73 13.312Z" fill="white"/>
<path d="M69 21C71.7614 21 74 18.7614 74 16C74 13.2386 71.7614 11 69 11C66.2386 11 64 13.2386 64 16C64 18.7614 66.2386 21 69 21Z" fill="#58707F"/>
<path d="M68.379 16.465L67.332 16.219L67.676 13.313H71V14.336H68.75L68.621 15.465C68.684 15.429 68.789 15.386 68.937 15.336C69.085 15.286 69.255 15.258 69.437 15.258C69.6916 15.2533 69.9447 15.2971 70.183 15.387C70.402 15.47 70.587 15.594 70.738 15.758C70.889 15.922 71.002 16.119 71.078 16.356C71.154 16.593 71.195 16.864 71.195 17.169C71.195 17.414 71.155 17.651 71.074 17.88C70.9958 18.1068 70.8723 18.3154 70.711 18.493C70.55 18.673 70.345 18.816 70.098 18.923C69.851 19.03 69.558 19.079 69.219 19.079C68.966 19.079 68.72 19.04 68.481 18.962C68.242 18.884 68.025 18.772 67.833 18.626C67.641 18.48 67.492 18.299 67.38 18.091C67.2689 17.8722 67.2139 17.6293 67.22 17.384H68.544C68.552 17.522 68.584 17.642 68.642 17.743C68.7 17.844 68.776 17.924 68.873 17.981C68.9774 18.0371 69.0945 18.0653 69.213 18.063C69.343 18.063 69.451 18.037 69.537 17.985C69.623 17.933 69.691 17.861 69.74 17.77C69.789 17.679 69.825 17.575 69.846 17.458C69.867 17.341 69.877 17.212 69.877 17.079C69.877 16.938 69.861 16.812 69.83 16.7C69.799 16.588 69.755 16.493 69.689 16.415C69.6218 16.3326 69.5343 16.2691 69.435 16.231C69.333 16.189 69.211 16.169 69.068 16.169C68.878 16.169 68.728 16.202 68.619 16.267C68.51 16.332 68.43 16.398 68.381 16.466L68.379 16.465Z" fill="white"/>
<path d="M78.5 0.5H2.5C1.67157 0.5 1 1.17157 1 2V30C1 30.8284 1.67157 31.5 2.5 31.5H78.5C79.3284 31.5 80 30.8284 80 30V2C80 1.17157 79.3284 0.5 78.5 0.5Z" stroke="#58707F"/>
</g>
<defs>
<clipPath id="clip0_1993_21074">
<rect width="80" height="32" fill="white"/>
</clipPath>
</defs>
</svg>

<svg xmlns="http://www.w3.org/2000/svg" width="81" height="32" fill="none" xmlns:v="https://vecta.io/nano"><circle cx="13" cy="16" r="5" fill="#8796a1"/><path d="M14.168 13.313V19h-1.316v-4.203l-1.297.379v-1l2.492-.863h.121z" fill="#fff"/><circle cx="27" cy="16" r="5" fill="#8796a1"/><path d="M29.222 17.984V19h-3.969v-.859l1.828-1.922.391-.496a1.99 1.99 0 0 0 .215-.402.9.9 0 0 0 .07-.324c0-.164-.025-.301-.074-.41s-.117-.197-.211-.254-.204-.086-.34-.086-.254.039-.355.117-.181.185-.238.32a1.21 1.21 0 0 0-.082.457h-1.32a1.86 1.86 0 0 1 .254-.957 1.9 1.9 0 0 1 .715-.691 2.09 2.09 0 0 1 1.059-.262c.419 0 .771.065 1.055.195a1.38 1.38 0 0 1 .641.566c.146.245.219.54.219.887a1.73 1.73 0 0 1-.094.57 2.45 2.45 0 0 1-.269.543c-.117.177-.26.359-.43.547l-.57.598-.734.848h2.242z" fill="#fff"/><circle cx="41" cy="16" r="5" fill="#8796a1"/><path d="M40.453 15.606h.641a.83.83 0 0 0 .402-.086c.107-.06.186-.143.238-.25a.89.89 0 0 0 .078-.387.68.68 0 0 0-.074-.316.53.53 0 0 0-.219-.23c-.099-.06-.225-.09-.379-.09a.74.74 0 0 0-.305.066c-.099.042-.181.102-.246.18s-.094.173-.094.285h-1.32c0-.323.089-.599.266-.828s.415-.409.707-.531.611-.187.949-.187c.404 0 .758.063 1.063.188s.542.305.711.547.258.537.258.891a1.16 1.16 0 0 1-.137.551c-.091.172-.219.323-.383.453s-.357.233-.578.309a2.26 2.26 0 0 1-.719.109h-.859v-.672zm0 .98v-.656h.859a2.9 2.9 0 0 1 .777.098 1.78 1.78 0 0 1 .605.281 1.27 1.27 0 0 1 .391.465 1.39 1.39 0 0 1 .137.629c0 .266-.053.503-.16.711s-.257.384-.449.527a2.12 2.12 0 0 1-.676.328c-.258.073-.538.109-.84.109-.237 0-.474-.031-.711-.094s-.453-.164-.648-.297-.353-.307-.473-.516-.176-.462-.176-.754h1.32c0 .12.033.229.098.328a.73.73 0 0 0 .27.231c.112.057.233.086.363.086a.86.86 0 0 0 .41-.09c.115-.062.202-.146.262-.25s.09-.22.09-.348c0-.193-.032-.346-.098-.461s-.155-.198-.277-.25-.264-.078-.434-.078h-.641z" fill="#fff"/><circle cx="55" cy="16" r="5" fill="#8796a1"/><path d="M57.304 16.777v1.016H53.21l-.078-.805 2.285-3.676h1.039l-1.129 1.848-.937 1.617h2.914zm-.574-3.465V19h-1.316v-5.687h1.316z" fill="#fff"/><circle cx="69" cy="16" r="5" fill="#8796a1"/><path d="M68.379 16.465l-1.047-.246.344-2.906H71v1.023h-2.25l-.129 1.129c.063-.036.168-.079.316-.129s.318-.078.5-.078a2.01 2.01 0 0 1 .746.129c.219.083.404.207.555.371s.264.361.34.598.117.508.117.813c0 .245-.04.482-.121.711a1.77 1.77 0 0 1-.363.613c-.161.18-.366.323-.613.43s-.54.156-.879.156c-.253 0-.499-.039-.738-.117s-.456-.19-.648-.336-.341-.327-.453-.535a1.48 1.48 0 0 1-.16-.707h1.324c.008.138.04.258.098.359s.134.181.231.238a.69.69 0 0 0 .34.082c.13 0 .238-.026.324-.078s.154-.124.203-.215.085-.195.106-.312.031-.246.031-.379c0-.141-.016-.267-.047-.379s-.075-.207-.141-.285a.61.61 0 0 0-.254-.184c-.102-.042-.224-.062-.367-.062-.19 0-.34.033-.449.098s-.189.131-.238.199z" fill="#fff"/><rect x="1" y=".5" width="79" height="31" rx="1.5" stroke="#ccc"/></svg>
